X: 28
T: No_35_A_Turtle_Pond.krn
N: Derived from No_35_A_Turtle_Pond.krn
%%abc-version 2.0
%%abcx-abcm2ps-target-version 5.9.1 (29 Sep 2008)
%%abc-creator hum2abc beta
%%abcx-conversion-date 2019/03/15 08:27:55
%%humdrum-veritas 1069214844
%%humdrum-veritas-data 1219485868
%%linebreak <none>
%%barnumbers 0
L: 1/8
M: 3/4
K: C clef=bass
[K:clef=bass][M:3/4]CC CA,G,2 | 
[M:2/4]A,G, G,G, | 
[M:3/4]E,2z2G,A, | 
[M:2/4]G,2A,G, | 
[M:3/4]G,G, E, z G,A, | 
[M:2/4]G,G, G, z ]|:  
C/C3/ CA, | 
G,2G,A, | 
G,G, G, z | 
C/C3/ CA, | 
G,2G,A, | 
G,G, G, z | 
A,/A,3/G,2 | 
A,G, G,G, | 
E, z G,A, | 
G,G, G, z :|]  
[M:3/4]G,G, G, z G,A, | 
[M:2/4]G,2A,G, | 
[M:3/4]G,G, E, z G,A, | 
[M:2/4]G,G, G, z |]  



